packages/ffe-icons/icons/open/300/md/roller_skating.svg

<svg xmlns="http://www.w3.org/2000/svg" height="24" viewBox="0 -960 960 960" width="24"><path d="M170.001-402.308v-435.384q0-29.827 21.24-51.067t51.067-21.24h195.384q29.827 0 51.067 21.24t21.24 51.067V-740q0 30.218 18.231 54.84 18.231 24.622 48.077 32.776l105 29q47.787 13.12 78.24 52.949 30.452 39.829 30.452 90.435v77.692q0 29.827-21.24 51.067t-51.067 21.24H242.308q-29.827 0-51.067-21.24t-21.24-51.067Zm72.307 12.309h475.384q5.385 0 8.847-3.462 3.462-3.462 3.462-8.847V-480q0-30.513-18.423-53.68-18.424-23.167-47.885-31.936l-105-30Q525-605.847 499.731-628.039q-25.269-22.192-38.115-54.269H380q-7.077 0-12.384-5.307-5.308-5.308-5.308-12.385t5.308-12.385q5.307-5.307 12.384-5.307h73.616q-2-11.615-2.5-21.346t-1.115-23.27H380q-7.077 0-12.384-5.307-5.308-5.308-5.308-12.385t5.308-12.385q5.307-5.307 12.384-5.307h70.001v-40q0-5.385-3.462-8.847-3.462-3.462-8.847-3.462H242.308q-5.385 0-8.847 3.462-3.462 3.462-3.462 8.847v435.384q0 5.385 3.462 8.847 3.462 3.462 8.847 3.462Zm-12.309 0ZM200.045-50.001q-45.814 0-77.929-32.07t-32.115-77.884q0-45.814 32.07-77.929t77.884-32.115q45.814 0 77.929 32.07t32.115 77.884q0 45.814-32.07 77.93-32.07 32.114-77.884 32.114ZM200-109.999q20.846 0 35.424-14.577 14.577-14.578 14.577-35.424t-14.577-35.424Q220.846-210.001 200-210.001t-35.424 14.577Q149.999-180.846 149.999-160t14.577 35.424q14.578 14.577 35.424 14.577Zm560.045 59.998q-45.814 0-77.929-32.07t-32.115-77.884q0-45.814 32.07-77.929t77.884-32.115q45.814 0 77.929 32.07t32.115 77.884q0 45.814-32.07 77.93-32.07 32.114-77.884 32.114ZM760-109.999q20.846 0 35.424-14.577 14.577-14.578 14.577-35.424t-14.577-35.424Q780.846-210.001 760-210.001t-35.424 14.577Q709.999-180.846 709.999-160t14.577 35.424q14.578 14.577 35.424 14.577ZM480.045-50.001q-45.814 0-77.929-32.07t-32.115-77.884q0-45.814 32.07-77.929t77.884-32.115q45.814 0 77.929 32.07t32.115 77.884q0 45.814-32.07 77.93-32.07 32.114-77.884 32.114ZM480-109.999q20.846 0 35.424-14.577 14.577-14.578 14.577-35.424t-14.577-35.424Q500.846-210.001 480-210.001t-35.424 14.577Q429.999-180.846 429.999-160t14.577 35.424q14.578 14.577 35.424 14.577ZM200-160Zm280 0Zm280 0Z"/></svg>

<svg xmlns="http://www.w3.org/2000/svg" height="24" viewBox="0 -960 960 960" width="24"><path d="M170-402.31v-435.38q0-29.83 21.24-51.07Q212.48-910 242.31-910h195.38q29.83 0 51.07 21.24Q510-867.52 510-837.69V-740q0 30.22 18.23 54.84 18.23 24.62 48.08 32.78l105 29q47.78 13.12 78.24 52.95Q790-530.61 790-480v77.69q0 29.83-21.24 51.07Q747.52-330 717.69-330H242.31q-29.83 0-51.07-21.24Q170-372.48 170-402.31ZM242.31-390h475.38q5.39 0 8.85-3.46t3.46-8.85V-480q0-30.51-18.42-53.68-18.43-23.17-47.89-31.94l-105-30q-33.69-10.23-58.96-32.42-25.27-22.19-38.11-54.27H380q-7.08 0-12.38-5.31-5.31-5.3-5.31-12.38 0-7.08 5.31-12.38 5.3-5.31 12.38-5.31h73.62q-2-11.62-2.5-21.35-.5-9.73-1.12-23.27h-70q-7.08 0-12.38-5.31-5.31-5.3-5.31-12.38 0-7.08 5.31-12.38 5.3-5.31 12.38-5.31h70v-40q0-5.39-3.46-8.85t-8.85-3.46H242.31q-5.39 0-8.85 3.46t-3.46 8.85v435.38q0 5.39 3.46 8.85t8.85 3.46ZM230-390ZM200.05-50q-45.82 0-77.93-32.07Q90-114.14 90-159.95q0-45.82 32.07-77.93Q154.14-270 199.95-270q45.82 0 77.93 32.07Q310-205.86 310-160.05q0 45.82-32.07 77.93Q245.86-50 200.05-50Zm-.05-60q20.85 0 35.42-14.58Q250-139.15 250-160t-14.58-35.42Q220.85-210 200-210t-35.42 14.58Q150-180.85 150-160t14.58 35.42Q179.15-110 200-110Zm560.05 60q-45.82 0-77.93-32.07Q650-114.14 650-159.95q0-45.82 32.07-77.93Q714.14-270 759.95-270q45.82 0 77.93 32.07Q870-205.86 870-160.05q0 45.82-32.07 77.93Q805.86-50 760.05-50Zm-.05-60q20.85 0 35.42-14.58Q810-139.15 810-160t-14.58-35.42Q780.85-210 760-210t-35.42 14.58Q710-180.85 710-160t14.58 35.42Q739.15-110 760-110ZM480.05-50q-45.82 0-77.93-32.07Q370-114.14 370-159.95q0-45.82 32.07-77.93Q434.14-270 479.95-270q45.82 0 77.93 32.07Q590-205.86 590-160.05q0 45.82-32.07 77.93Q525.86-50 480.05-50Zm-.05-60q20.85 0 35.42-14.58Q530-139.15 530-160t-14.58-35.42Q500.85-210 480-210t-35.42 14.58Q430-180.85 430-160t14.58 35.42Q459.15-110 480-110Zm-280-50Zm280 0Zm280 0Z"/></svg>
